X:6
T:Sarakino Oro
O:Macedoine (Mer Egee)
M:7/16
L:1/8
K:Eb
ef/ =e/f/f | c> =e/f/g/f/ | ef/ =e/f/f | c3/ c2 |
|: B/=A/B/ {c} dd | dc/ dd/c/ | {=e} f3/ ff |
c3/ B/=A/G/F/ | B/=A/B/ {c} dd | dc/ dd/c/ | {=e} f3/ ff | c3/-c2 :|
|: gf/ g/f/e/d/ | cB/ {e} fe | d3/ c-c/B/ | {f} g3/-g2 |
gf/ g/f/e/d/ | cB/ {e} fe | d3/ c-c/B/ | c3/-c3 :|
